X:1
T:Aloland
R:highland
Z:id:hn-hf-1
M:C|
K:G
A2 A2B2 | B2A2 B2A2 | B2B2 B2B2 | B2B2 A2B2 | B2B2


*****************************


10000 0 2.176048 

<startion (3/8)
K:C
G2 G2G2 G2G2 | G2G2 G2G2 | G2G2 G2G2 | G2G2 G2G2 | G2G2 G2G2 | G2G2 G2G2 | G2G2 G2G2 


*****************************


10100 0 1.900971 

<startion (3/3/8)
K:D
D2 G2GF D2:|
|: (3fgf gfga | gfga agga | gfga agga | gfga aggf | gfga agga | gfga a


*****************************


10200 0 2.8048563 

<startion (3/3)
K:G
G2 G2G2 G2:|
|:gf|gfgf gfed|dBcB G2G2|
G2G2 G2G2|
G2G2 G2G2|
G2G2 G2G2|
G2BG G2G2|
G2


*****************************


10300 0 1.8763412 

<startion (3/8)
K:G
D2 G2 (3AG (3EEF G2 (3AB (3Bc (3Bc (3AG (3Bc (3Bc (3AG (3Bc (3Bc (3Bc (3Bc (3Bc (3Bc 


*****************************


10400 0 1.9687963 

<startion (3/8)
K:D
D2 G2 G2:|
|:|
|:|
|:|
|:|
|:|
|:|
|:D|
|:|
|: G2 G2 (3Bc dBAG | G2GB G2:|
|: (3Bcd (


*****************************


10500 0 2.7683508 

<startion (33)
K:G
AA|FGFF G2:|
|:|
|:F|
|:|
|:|
|:|
|:|
|:|
|:|
|:|
|:|
|:G|
|:G|
|:G2|
G2 G2 G2:|
|:|
|


*****************************


10600 0 1.2802839 

<startion (33)
K:G
AB (3Bcd (3Bcd (3Bcd | (3Bcd (3Bcd (3Bcd (3Bcd (3Bcd | (3Bcd (3Bcd (3Bcd (3Bcd (3Bcd |


*****************************


10700 0 2.5048952 

<startion (33)
K:G
GB|dBAG G2 (3Bcd |
e2ed efed|ed efed ef|eded efed|eded efed|eded efed |
efed efed|e2 (


*****************************


10800 0 1.563883 

<start>
